build/assets/img/svg/icon-arrow-8.svg

<svg width="103" height="92" viewBox="0 0 103 92" fill="none" xmlns="http://www.w3.org/2000/svg">
<path d="M28.5259 84.0941C29.9344 84.0296 31.2797 83.7926 32.5618 83.3831L31.9303 81.6586C30.8085 82.0168 29.4632 82.2538 28.215 82.2672L28.5259 84.0941ZM35.5534 80.3089L36.5054 81.9311C37.7244 81.3492 38.8803 80.5949 39.8127 79.7192L38.7636 78.3206C37.5446 78.9025 36.549 79.6057 35.5534 80.3089ZM41.1141 75.4511L42.4837 76.7473C43.353 75.6992 44.1592 74.4787 44.6448 73.3605L43.0178 72.3391C42.6924 73.4061 41.9834 74.403 41.1141 75.4511ZM44.5717 68.7608L46.2327 69.3861C46.5921 67.923 46.7911 66.5111 46.8299 65.1503L45.1349 64.9211C45.033 66.1094 44.9942 67.4702 44.5717 68.7608ZM35.8327 37.0717L37.4354 36.5599C36.9303 35.1802 36.5853 33.7494 36.1433 32.5422L34.4775 32.8815C34.9827 34.2612 35.3276 35.692 35.8327 37.0717ZM37.5085 41.1596C38.0137 42.5392 38.6792 43.8677 39.2815 45.0238L40.821 44.3395C40.1556 43.011 39.7135 41.8038 39.0481 40.4753L37.5085 41.1596ZM44.8675 60.7687L46.5965 60.6018C46.475 59.2923 46.1301 57.8614 45.5618 56.3093L43.896 56.6486C44.4643 58.2008 44.5858 59.5103 44.8675 60.7687ZM41.0544 48.888C41.7198 50.2164 42.1618 51.4237 42.667 52.8033L44.2697 52.2915C43.7645 50.9118 43.0991 49.5834 42.6571 48.3761L41.0544 48.888ZM33.9867 28.6079L35.7789 28.6134C35.7837 27.6488 35.6282 26.7353 35.633 25.7706C35.667 25.3745 35.701 24.9784 35.7349 24.5823L33.9768 24.1807C33.9428 24.5768 33.9088 24.9729 33.8749 25.369C33.7729 26.5573 33.8313 27.6944 33.9867 28.6079ZM35.0208 20.1874L36.5847 21.0363C37.0703 19.9181 37.7162 18.7488 38.4252 17.7518L37.0555 16.4556C36.2494 17.6762 35.6035 18.8456 35.0208 20.1874ZM40.1734 13.7263L41.2857 15.2973C42.0239 14.869 42.6018 14.4918 43.4031 14.2359C43.7237 14.1335 44.2045 13.98 44.525 13.8776L44.0538 12.1019C43.573 12.2554 43.0291 12.2365 42.7085 12.3388C41.7469 12.6459 40.8484 13.1255 40.1734 13.7263ZM48.0122 14.1124C49.1632 14.3227 50.2803 14.9291 51.6208 15.6567L52.3007 14.0912C50.7367 13.2423 49.4594 12.6871 48.3083 12.4768L48.0122 14.1124ZM55.0983 17.8208C56.2785 18.5997 57.4588 19.3785 58.7361 19.9337L59.416 18.3682C58.2989 17.7618 57.1187 16.983 55.9385 16.2041L55.0983 17.8208ZM62.8887 21.497C64.2632 21.8285 65.6716 21.764 67.0801 21.6995L66.7691 19.8725C65.5841 20.0583 64.2728 19.8992 63.1217 19.6889L62.8887 21.497ZM70.2951 18.7465L71.0868 20.4199C72.3058 19.838 73.4617 19.0836 74.5544 18.1568L73.345 16.8094C72.4125 17.6851 71.4169 18.3882 70.2951 18.7465ZM75.6955 13.9399L77.1623 15.0125C77.8082 13.8431 78.2938 12.7249 78.4928 11.313L76.8318 10.6877C76.5696 11.9271 76.2442 12.9942 75.6955 13.9399Z" fill="black"/>
<path d="M30.6648 74.9023L32.1106 75.9589L27.1508 82.6655L34.3796 87.9485L33.3301 89.422L24.5934 82.9125L30.6648 74.9023Z" fill="black"/>
</svg>

<svg width="103" height="92" fill="none" xmlns="http://www.w3.org/2000/svg"><path d="M28.526 84.094a15.543 15.543 0 004.036-.71l-.632-1.725a13.164 13.164 0 01-3.715.608l.31 1.827zm7.027-3.785l.952 1.622c1.22-.582 2.375-1.336 3.308-2.212l-1.05-1.398c-1.218.582-2.214 1.285-3.21 1.988zm5.561-4.858l1.37 1.296c.869-1.048 1.675-2.268 2.16-3.386l-1.626-1.022c-.326 1.067-1.035 2.064-1.904 3.112zm3.458-6.69l1.66.625c.36-1.463.56-2.875.598-4.236l-1.695-.229c-.102 1.188-.14 2.55-.563 3.84zm-8.74-31.69l1.603-.511c-.505-1.38-.85-2.81-1.292-4.018l-1.666.34c.506 1.38.85 2.81 1.356 4.19zm1.676 4.089c.506 1.38 1.171 2.708 1.773 3.864l1.54-.684c-.665-1.329-1.107-2.536-1.773-3.865l-1.54.685zm7.36 19.609l1.728-.167c-.121-1.31-.466-2.74-1.034-4.293l-1.666.34c.568 1.552.69 2.861.971 4.12zm-3.814-11.881c.666 1.328 1.108 2.536 1.613 3.915l1.603-.511c-.506-1.38-1.17-2.709-1.613-3.916l-1.603.512zm-7.067-20.28l1.792.005c.005-.964-.15-1.878-.146-2.842l.102-1.189-1.758-.401-.102 1.188a13.127 13.127 0 00.112 3.239zm1.034-8.42l1.564.848a18.64 18.64 0 011.84-3.284l-1.37-1.296a23.742 23.742 0 00-2.034 3.731zm5.152-6.462l1.113 1.571c.738-.428 1.316-.805 2.117-1.061l1.122-.358-.471-1.776c-.481.153-1.025.134-1.346.237-.961.307-1.86.787-2.535 1.387zm7.84.386c1.15.21 2.267.817 3.608 1.545l.68-1.566c-1.564-.849-2.842-1.404-3.993-1.614l-.296 1.635zm7.085 3.709c1.18.779 2.36 1.557 3.638 2.113l.68-1.566c-1.117-.606-2.297-1.385-3.477-2.164l-.84 1.617zm7.79 3.676c1.375.331 2.784.267 4.192.203l-.31-1.828c-1.186.186-2.497.027-3.648-.183l-.233 1.808zm7.407-2.75l.792 1.673a16.034 16.034 0 003.467-2.263l-1.209-1.348c-.933.876-1.928 1.58-3.05 1.938zm5.4-4.807l1.467 1.072c.646-1.169 1.132-2.287 1.33-3.699l-1.66-.625c-.262 1.24-.588 2.306-1.136 3.252z" fill="#000"/><path d="M30.665 74.902l1.446 1.057-4.96 6.706 7.229 5.283-1.05 1.474-8.737-6.51 6.072-8.01z" fill="#000"/></svg>
